X: 108102
T: The PERTH HUNT
Q:"Reel."
R: Reel.
%R:reel
B: James Kerr "Merry Melodies" v.1 p.8 s.1 #2
Z: 2017 John Chambers <jc:trillian.mit.edu>
M: C
L: 1/8
K: A
F |\
E2(CE) A,ECE | A,ECE FB,B,F |\
E2(CE) A,ECe | ceBd cA A :|\
d |\
cAeA fAeA | cAeA fBBe |
cAeA fAeA | EFAB cAAd |\
(c/B/A)(eA) fAeA | (c/B/A)(eA) fBBe |\
ceAc dfBc | EFAB cA A |]

%%sep 1 1 500
%%sep 1 1 500

